X:37
T:Pollonesse ur J H Anderssons notbok (Ma11 - 37)
R:Polska
O:Fjärås, Halland
B:J H Anderssons notbok
N:Nr 37 i Ma11.
N:Jmf. SvL Östergötaland 197
Z:Till abc Jonas Brunskog
M:3/4
L:1/16
K:C
c4 c2AF BABd|cdcB ABAG FEDC|B,2d2 A,2c2 G,2B2|BAGF FEFG ABAc:|
|:g4 g2ec fefa|gagf efed cBAG|F2a2 E2g2 D2f2|gfed cBcd efef|
g4 g2ec fefa|gagf efed cBAG|F2a2 E2g2 D2f2|gfed d4 c4:|

